img/grad-icon/set-money.svg

<svg width="15" height="15" viewBox="0 0 15 15" fill="none" xmlns="http://www.w3.org/2000/svg">
<path d="M14.6309 6.60933L8.39145 0.36982C7.89934 -0.122297 7.1012 -0.122297 6.60908 0.36982C6.11696 0.861937 6.11696 1.66007 6.60908 2.15219L11.9568 7.49989L6.60908 12.8476C6.11696 13.3397 6.11696 14.1378 6.60908 14.6299C7.1012 15.122 7.89934 15.122 8.39145 14.6299L14.6309 8.39045C15.1231 7.89956 15.1231 7.10144 14.6309 6.60933ZM7.12867 6.2315L2.17505 1.01058C1.6773 0.48663 0.87107 0.48663 0.373316 1.01058C-0.124439 1.53454 -0.124439 2.38451 0.373316 2.9091L4.4264 7.18076L0.373316 11.4524C-0.124439 11.9764 -0.124439 12.8269 0.373316 13.3509C0.87107 13.8749 1.6773 13.8749 2.17505 13.3509L7.12867 8.13001C7.62643 7.60606 7.62643 6.75609 7.12867 6.2315Z" fill="url(#paint0_linear_138_3395)"/>
<defs>
<linearGradient id="paint0_linear_138_3395" x1="7.50002" y1="0.000732422" x2="7.50002" y2="14.999" gradientUnits="userSpaceOnUse">
<stop stop-color="#298BE7"/>
<stop offset="1" stop-color="#70EFEE"/>
</linearGradient>
</defs>
</svg>

<svg width="15" height="15" fill="none" xmlns="http://www.w3.org/2000/svg"><path d="M14.63 6.61L8.392.37A1.26 1.26 0 006.61 2.152L11.957 7.5l-5.348 5.348a1.26 1.26 0 001.782 1.782l6.24-6.24a1.259 1.259 0 000-1.78zm-7.5-.38L2.176 1.01a1.23 1.23 0 00-1.802 0 1.394 1.394 0 000 1.898L4.427 7.18.374 11.451a1.394 1.394 0 000 1.899 1.229 1.229 0 001.802 0l4.953-5.22a1.394 1.394 0 000-1.899z" fill="url(#paint0_linear_138_3395)"/><defs><linearGradient id="paint0_linear_138_3395" x1="7.5" y1=".001" x2="7.5" y2="14.999" gradientUnits="userSpaceOnUse"><stop stop-color="#298BE7"/><stop offset="1" stop-color="#70EFEE"/></linearGradient></defs></svg>
